themes/asg/static/images/logo/logo.svg

<svg width="80" height="80" viewBox="0 0 80 80" fill="none" xmlns="http://www.w3.org/2000/svg">
<g clip-path="url(#clip0)">
<path d="M46.3784 10.7234L57.1509 0H80V21.5035L68.5471 32.5674V10.7234H46.3784Z" fill="#FA1100"/>
<path d="M69.2275 46.4113L80 57.1915V80H58.5117L47.399 68.5957H69.2275V46.4113Z" fill="#00FF00"/>
<path d="M33.5648 10.7234L22.849 0H0V21.5035L11.3962 32.5674V10.7234H33.5648Z" fill="white"/>
<path d="M10.7158 46.4113L0 57.1915V80H21.4883L32.5443 68.5957H10.7158V46.4113Z" fill="#0000FF"/>
<path d="M19.2771 41.3617L36.7966 23.4894" stroke="white" stroke-width="0.811" stroke-miterlimit="10" stroke-linecap="round"/>
<path d="M34.7555 32.9078H32.7144L32.1474 34.156H30.3331L33.6783 27.461H35.9462L36.5131 34.156H34.8122L34.7555 32.9078ZM33.3381 31.4894H34.6421L34.5854 29.5603V29.1631C34.5854 28.9362 34.5854 28.7092 34.5854 28.539C34.5287 28.8227 34.4153 29.0496 34.3019 29.2766L33.3381 31.4894Z" fill="white"/>
<path d="M37.1368 34.156L38.5543 27.5177H40.3119L39.2346 32.7376H41.3891L41.1057 34.2128H37.1368V34.156Z" fill="white"/>
<path d="M41.8994 34.156L43.2602 27.461H45.0178L43.9405 32.6809H46.095L45.8115 34.156H41.8994Z" fill="white"/>
<path d="M27.7817 40.6809C27.7817 41.3617 27.5549 41.8724 27.1014 42.2695C26.6478 42.6667 26.0241 42.8369 25.287 42.8369C24.9469 42.8369 24.6634 42.7802 24.3799 42.7234C24.0964 42.6667 23.8129 42.5532 23.6428 42.383V40.7943C23.8696 40.9646 24.2098 41.078 24.4933 41.1915C24.8335 41.305 25.117 41.3617 25.4004 41.3617C25.6272 41.3617 25.7973 41.305 25.9107 41.2482C26.0241 41.1348 26.0808 41.0213 26.0808 40.8511C26.0808 40.7943 26.0808 40.6809 26.0241 40.6241C25.9674 40.5674 25.9107 40.4539 25.854 40.3972C25.7973 40.3404 25.6272 40.1702 25.3437 39.9433C25.0036 39.6596 24.7201 39.3759 24.6067 39.0922C24.4366 38.8085 24.3799 38.4681 24.3799 38.1277C24.3799 37.7305 24.4933 37.3901 24.6634 37.0497C24.8335 36.7092 25.117 36.4823 25.5138 36.3121C25.854 36.1419 26.2509 36.0284 26.7045 36.0284C27.4415 36.0284 28.0652 36.1986 28.6322 36.539L28.0085 37.9007C27.4982 37.617 27.0447 37.5036 26.7045 37.5036C26.5344 37.5036 26.3643 37.5603 26.2509 37.617C26.1375 37.6738 26.0808 37.844 26.0808 38.0142C26.0808 38.1844 26.1375 38.2979 26.2509 38.4114C26.3643 38.5248 26.5344 38.695 26.8179 38.922C27.1581 39.2057 27.4415 39.4894 27.6116 39.7731C27.6683 40 27.7817 40.2837 27.7817 40.6809Z" fill="white"/>
<path d="M31.1268 38.5248L32.5443 36.0284H34.5287L31.7505 40.1702L31.1835 42.7802H29.4826L30.0496 40.1702L28.9156 36.0851H30.73L31.1268 38.5248Z" fill="white"/>
<path d="M37.9305 40.6809C37.9305 41.3617 37.7037 41.8724 37.2502 42.2695C36.7966 42.6667 36.1729 42.8369 35.4358 42.8369C35.0957 42.8369 34.8122 42.7802 34.5287 42.7234C34.2452 42.6667 33.9617 42.5532 33.7916 42.383V40.7943C34.0184 40.9646 34.3586 41.078 34.6421 41.1915C34.9823 41.305 35.2658 41.3617 35.5492 41.3617C35.776 41.3617 35.9461 41.305 36.0595 41.2482C36.1729 41.1348 36.2296 41.0213 36.2296 40.8511C36.2296 40.7943 36.2296 40.6809 36.1729 40.6241C36.1162 40.5674 36.0595 40.4539 36.0028 40.3972C35.9461 40.3404 35.776 40.1702 35.4925 39.9433C35.1524 39.6596 34.8689 39.3759 34.7555 39.0922C34.5854 38.8085 34.5287 38.4681 34.5287 38.1277C34.5287 37.7305 34.6421 37.3901 34.8122 37.0497C34.9823 36.7092 35.2658 36.4823 35.6626 36.3121C36.0028 36.1419 36.3997 36.0284 36.8533 36.0284C37.5903 36.0284 38.214 36.1986 38.781 36.539L38.1573 37.9007C37.647 37.617 37.1935 37.5036 36.8533 37.5036C36.6832 37.5036 36.5131 37.5603 36.3997 37.617C36.2863 37.6738 36.2296 37.844 36.2296 38.0142C36.2296 38.1844 36.2863 38.2979 36.3997 38.4114C36.5131 38.5248 36.6832 38.695 36.9667 38.922C37.3069 39.2057 37.5903 39.4894 37.7604 39.7731C37.8171 40 37.9305 40.2837 37.9305 40.6809Z" fill="white"/>
<path d="M41.1624 42.7234H39.4048L40.482 37.5036H39.0646L39.3481 36.0284H43.9405L43.6571 37.5603H42.2396L41.1624 42.7234Z" fill="white"/>
<path d="M47.229 42.7234H43.3169L44.6776 36.0284H48.5897L48.3063 37.5036H46.1518L45.9817 38.5816H47.9661L47.6259 40H45.6415L45.358 41.2482H47.5125L47.229 42.7234Z" fill="white"/>
<path d="M50.7441 42.7234V37.9575H50.6874C50.4606 39.2057 50.3472 40 50.2906 40.2837L49.7803 42.7234H48.1927L49.5535 36.0284H51.8781V40.7943H51.9348L54.0893 36.0284H56.4706L55.0531 42.7234H53.4656L53.9759 40.227C54.146 39.5461 54.2594 38.8653 54.4862 38.2411L54.5429 37.9575H54.4862L52.3317 42.7234H50.7441Z" fill="white"/>
<path d="M60.6663 40.6809C60.6663 41.3617 60.4395 41.8724 59.9859 42.2695C59.5323 42.6667 58.9086 42.8369 58.1716 42.8369C57.8314 42.8369 57.5479 42.7802 57.2644 42.7234C56.9809 42.6667 56.6974 42.5532 56.5273 42.383V40.7943C56.7541 40.9646 57.0943 41.078 57.3778 41.1915C57.718 41.305 58.0015 41.3617 58.285 41.3617C58.5118 41.3617 58.6818 41.305 58.7952 41.2482C58.9086 41.1348 58.9653 41.0213 58.9653 40.8511C58.9653 40.7943 58.9653 40.6809 58.9086 40.6241C58.8519 40.5674 58.7952 40.4539 58.7385 40.3972C58.6818 40.3404 58.5118 40.1702 58.2283 39.9433C57.8881 39.6596 57.6046 39.3759 57.4912 39.0922C57.3211 38.8085 57.2644 38.4681 57.2644 38.1277C57.2644 37.7305 57.3778 37.3901 57.5479 37.0497C57.718 36.7092 58.0015 36.4823 58.3984 36.3121C58.7385 36.1419 59.1354 36.0284 59.589 36.0284C60.3261 36.0284 60.9497 36.1986 61.5167 36.539L60.893 37.9007C60.3828 37.617 59.9292 37.5036 59.589 37.5036C59.4189 37.5036 59.2488 37.5603 59.1354 37.617C59.022 37.6738 58.9653 37.844 58.9653 38.0142C58.9653 38.1844 59.022 38.2979 59.1354 38.4114C59.2488 38.5248 59.4189 38.695 59.7024 38.922C60.0426 39.2057 60.3261 39.4894 60.4962 39.7731C60.5529 40 60.6663 40.2837 60.6663 40.6809Z" fill="white"/>
<path d="M42.0128 47.3191H44.7343L43.9972 50.9504C43.2601 51.1773 42.4664 51.3475 41.6726 51.3475C40.8788 51.3475 40.3119 51.1206 39.8583 50.6667C39.4047 50.2128 39.2346 49.5319 39.2346 48.6809C39.2346 47.8865 39.4047 47.1489 39.7449 46.4681C40.0851 45.7872 40.5387 45.3333 41.1056 44.9929C41.6726 44.6525 42.353 44.4823 43.09 44.4823C43.8838 44.4823 44.5642 44.6525 45.0744 44.9929L44.3941 46.4113C43.9405 46.1277 43.4869 46.0142 43.0333 46.0142C42.6365 46.0142 42.2963 46.1277 42.0128 46.3546C41.7293 46.5816 41.4458 46.922 41.2757 47.3191C41.1056 47.773 40.9922 48.227 40.9922 48.6809C40.9922 49.4752 41.3324 49.8723 41.9561 49.8723C42.1262 49.8723 42.353 49.8723 42.5798 49.8156L42.8066 48.7376H41.786L42.0128 47.3191Z" fill="white"/>
<path d="M48.9298 44.4823C49.7236 44.4823 50.2906 44.7092 50.7442 45.1631C51.1977 45.617 51.3678 46.2411 51.3678 47.0355C51.3678 47.8298 51.1977 48.5674 50.9143 49.2482C50.6308 49.9291 50.1772 50.4397 49.6669 50.7801C49.1566 51.1206 48.533 51.2908 47.8526 51.2908C47.0588 51.2908 46.4352 51.0638 45.9816 50.6099C45.5847 50.2128 45.3579 49.5887 45.3579 48.7943C45.3579 48 45.528 47.2624 45.8115 46.5816C46.095 45.9007 46.5486 45.3901 47.0588 45.0496C47.6258 44.6525 48.2495 44.4823 48.9298 44.4823ZM49.6102 47.0355C49.6102 46.695 49.5535 46.4113 49.3834 46.2411C49.27 46.0709 49.0432 45.9574 48.7598 45.9574C48.4763 45.9574 48.1928 46.0709 47.966 46.3546C47.7392 46.6383 47.5124 46.9787 47.399 47.4326C47.2289 47.8865 47.1722 48.3404 47.1722 48.7943C47.1722 49.5319 47.4557 49.8723 48.0794 49.8723C48.3629 49.8723 48.6464 49.7589 48.8731 49.4752C49.0999 49.2482 49.3267 48.9078 49.4401 48.4539C49.5535 48.0567 49.6102 47.5461 49.6102 47.0355Z" fill="white"/>
<path d="M51.4813 50.6667C51.4813 50.3262 51.5947 50.0993 51.7648 49.8723C51.9349 49.7021 52.2184 49.5886 52.5586 49.5886C52.8421 49.5886 53.0122 49.6454 53.1822 49.7589C53.2956 49.8723 53.409 50.0425 53.409 50.2695C53.409 50.6099 53.2956 50.8369 53.1255 51.0638C52.9554 51.234 52.672 51.3475 52.3318 51.3475C52.0483 51.3475 51.8782 51.2908 51.7081 51.1773C51.5947 51.0638 51.4813 50.8936 51.4813 50.6667ZM53.4657 48.9078H51.9916L52.672 44.5957H54.5997L53.4657 48.9078Z" fill="white"/>
</g>
<defs>
<clipPath id="clip0">
<rect width="80" height="80" fill="white"/>
</clipPath>
</defs>
</svg>

<svg width="80" height="80" fill="none" xmlns="http://www.w3.org/2000/svg"><g clip-path="url(#clip0)"><path d="M46.378 10.723L57.151 0H80v21.503L68.547 32.567V10.723H46.378z" fill="#FA1100"/><path d="M69.228 46.411L80 57.191V80H58.512L47.399 68.596h21.829V46.41z" fill="#0F0"/><path d="M33.565 10.723L22.849 0H0v21.503l11.396 11.064V10.723h22.169z" fill="#fff"/><path d="M10.716 46.411L0 57.191V80h21.488l11.056-11.404H10.716V46.41z" fill="#00F"/><path d="M19.277 41.362l17.52-17.873" stroke="#fff" stroke-width=".811" stroke-miterlimit="10" stroke-linecap="round"/><path d="M34.755 32.908h-2.04l-.568 1.248h-1.814l3.345-6.695h2.268l.567 6.695h-1.7l-.058-1.248zm-1.417-1.419h1.304l-.057-1.929v-1.021c-.056.284-.17.51-.283.738l-.964 2.212zm3.799 2.667l1.417-6.638h1.758l-1.077 5.22h2.154l-.283 1.475h-3.97v-.057zm4.763 0l1.36-6.695h1.758l-1.078 5.22h2.155l-.283 1.475h-3.913zM27.782 40.68c0 .682-.227 1.192-.68 1.59-.454.397-1.078.567-1.815.567a4.4 4.4 0 0 1-.907-.114c-.284-.056-.567-.17-.737-.34v-1.589c.227.17.567.284.85.398.34.113.624.17.907.17.227 0 .397-.057.51-.114a.515.515 0 0 0 .17-.397c0-.057 0-.17-.056-.227-.057-.057-.113-.17-.17-.227a5.95 5.95 0 0 0-.51-.454c-.34-.283-.624-.567-.737-.85-.17-.285-.227-.625-.227-.965 0-.398.113-.738.283-1.078.17-.34.454-.568.85-.738.341-.17.738-.284 1.191-.284.738 0 1.361.17 1.928.511l-.623 1.362c-.51-.284-.964-.397-1.305-.397-.17 0-.34.056-.453.113-.114.057-.17.227-.17.397s.056.284.17.397c.113.114.283.284.567.511.34.284.623.567.794.851.056.227.17.51.17.908zm3.345-2.155l1.417-2.497h1.985L31.75 40.17l-.567 2.61h-1.7l.567-2.61-1.134-4.085h1.814l.397 2.44zm6.803 2.155c0 .682-.226 1.192-.68 1.59-.453.397-1.077.567-1.814.567a4.4 4.4 0 0 1-.907-.114c-.284-.056-.567-.17-.737-.34v-1.589c.226.17.567.284.85.398.34.113.624.17.907.17.227 0 .397-.057.51-.114a.515.515 0 0 0 .17-.397c0-.057 0-.17-.056-.227-.057-.057-.114-.17-.17-.227a5.95 5.95 0 0 0-.51-.454c-.34-.283-.624-.567-.738-.85-.17-.285-.226-.625-.226-.965 0-.398.113-.738.283-1.078.17-.34.454-.568.85-.738a2.64 2.64 0 0 1 1.191-.284c.737 0 1.361.17 1.928.511l-.624 1.362c-.51-.284-.963-.397-1.304-.397-.17 0-.34.056-.453.113-.114.057-.17.227-.17.397s.056.284.17.397c.113.114.283.284.567.511.34.284.623.567.793.851.057.227.17.51.17.908zm3.232 2.043h-1.757l1.077-5.22h-1.417l.283-1.475h4.593l-.284 1.532H42.24l-1.078 5.163zm6.067 0h-3.912l1.36-6.695h3.913l-.284 1.476h-2.154l-.17 1.078h1.984L47.626 40h-1.984l-.284 1.248h2.155l-.284 1.475zm3.515 0v-4.765h-.057c-.226 1.248-.34 2.042-.396 2.326l-.51 2.44h-1.588l1.36-6.696h2.325v4.766h.057l2.154-4.766h2.382l-1.418 6.695h-1.587l.51-2.496c.17-.68.283-1.362.51-1.986l.057-.283h-.057l-2.154 4.765h-1.588zm9.922-2.043c0 .682-.226 1.192-.68 1.59-.454.397-1.077.567-1.814.567a4.4 4.4 0 0 1-.908-.114c-.283-.056-.567-.17-.737-.34v-1.589c.227.17.567.284.85.398.341.113.624.17.908.17.227 0 .397-.057.51-.114a.515.515 0 0 0 .17-.397c0-.057 0-.17-.056-.227-.057-.057-.114-.17-.17-.227a5.942 5.942 0 0 0-.51-.454c-.34-.283-.624-.567-.738-.85-.17-.285-.227-.625-.227-.965 0-.398.114-.738.284-1.078.17-.34.453-.568.85-.738.34-.17.737-.284 1.191-.284.737 0 1.36.17 1.928.511l-.624 1.362c-.51-.284-.964-.397-1.304-.397-.17 0-.34.056-.454.113-.113.057-.17.227-.17.397s.057.284.17.397c.114.114.284.284.567.511.34.284.624.567.794.851.057.227.17.51.17.908zm-18.653 6.64h2.721l-.737 3.63c-.737.227-1.53.397-2.324.397-.794 0-1.361-.226-1.815-.68-.453-.454-.623-1.135-.623-1.986 0-.794.17-1.532.51-2.213.34-.68.794-1.135 1.36-1.475.568-.34 1.248-.51 1.985-.51.794 0 1.474.17 1.984.51l-.68 1.418a2.507 2.507 0 0 0-1.36-.397c-.398 0-.738.114-1.021.34a2.572 2.572 0 0 0-.737.965c-.17.454-.284.908-.284 1.362 0 .794.34 1.191.964 1.191.17 0 .397 0 .624-.056l.227-1.078h-1.021l.227-1.419zm6.917-2.838c.794 0 1.36.227 1.814.681.454.454.624 1.078.624 1.873 0 .794-.17 1.531-.454 2.212a3.395 3.395 0 0 1-1.247 1.532c-.51.34-1.134.51-1.814.51-.794 0-1.418-.226-1.871-.68-.397-.397-.624-1.021-.624-1.816a5.7 5.7 0 0 1 .454-2.212 3.396 3.396 0 0 1 1.247-1.532c.567-.397 1.19-.568 1.87-.568zm.68 2.553c0-.34-.056-.624-.227-.794-.113-.17-.34-.284-.623-.284a.99.99 0 0 0-.794.398c-.227.283-.454.624-.567 1.078-.17.453-.227.907-.227 1.361 0 .738.284 1.078.907 1.078a.99.99 0 0 0 .794-.397c.227-.227.454-.567.567-1.021.114-.397.17-.908.17-1.419zm1.871 3.632c0-.34.114-.568.284-.795.17-.17.453-.283.794-.283.283 0 .453.056.623.17a.719.719 0 0 1 .227.51c0 .34-.113.568-.283.795-.17.17-.454.283-.794.283-.284 0-.454-.056-.624-.17a.72.72 0 0 1-.227-.51zm1.985-1.76h-1.474l.68-4.311H54.6l-1.134 4.312z" fill="#fff"/></g><defs><clipPath id="clip0"><path fill="#fff" d="M0 0h80v80H0z"/></clipPath></defs></svg>
